svg/repo.svg

<svg height="1024" width="768" xmlns="http://www.w3.org/2000/svg">
  <path d="M320 256h-64v64h64v-64z m0-128h-64v64h64v-64z m384-128c-32 0-608 0-640 0s-64 32-64 64 0 736 0 768 32 64 64 64 128 0 128 0v128l96-96 96 96v-128s288 0 320 0 64-32 64-64 0-736 0-768-32-64-64-64z m0 800c0 16-15 32-32 32s-288 0-288 0v-64h-192v64s-79 0-96 0-32-17-32-32 0-96 0-96h640s0 80 0 96z m0-160h-512v-576h513l-1 576z m-384-128h-64v64h64v-64z m0-128h-64v64h64v-64z" />
</svg>

<svg height="1024" width="768" xmlns="http://www.w3.org/2000/svg">
  <path d="M320 256h-64v64h64V256zM320 128h-64v64h64V128zM704 0H64C64 0 0 0 0 64v768c0 64 64 64 64 64h128v128l96-96 96 96V896h320c0 0 64-1.125 64-64V64C768 0 704 0 704 0zM704 768c0 61.625-64 64-64 64H384v-64H192v64h-64c-64 0-64-64-64-64v-64h640V768zM704 640H192V64h513L704 640zM320 512h-64v64h64V512zM320 384h-64v64h64V384z" />
</svg>
